X:0013
M:2/4
L:1/8
Q:1/4=88
K:D
     FAd2|cdeg| fd          (c/d/e/c/)  | d2        D :|
g   |fdfa|eceg| fdfa                    |(e/d/c/B/) A>g|
     fdfa|eceg|(f/a/)(f/d/) (e/g/)(e/c/)| d2        D :|

